icon-themes/sifr_svg/cmd/lc_flowchartshapes.flowchart-sort.svg

<svg viewBox="0 0 24 24" xmlns="http://www.w3.org/2000/svg"><g fill="#555753"><path d="m12 3.7255304 8.27447 8.2744696-8.27447 8.27447-8.2744695-8.27447z" opacity=".35"/><path d="m12 1-11 11 11 11 11-11zm0 2.7246094 7.275391 7.2753906h-14.5507816zm-7.2753906 9.2753906h14.5507816l-7.275391 7.275391z"/></g></svg>

<svg xmlns="http://www.w3.org/2000/svg" viewBox="0 0 24 24">
  <path
     style="opacity:0.35;fill:#555753"
     d="M 12,3.7255304 20.27447,12 12,20.27447 3.7255305,12 Z"
     />
  <path
     style="fill:#555753"
     d="M 12 1 L 1 12 L 12 23 L 23 12 L 12 1 z M 12 3.7246094 L 19.275391 11 L 4.7246094 11 L 12 3.7246094 z M 4.7246094 13 L 19.275391 13 L 12 20.275391 L 4.7246094 13 z "
     />
</svg>
